X:1
T:Minuet
T:Minuet
T:Karl Friedrich Abel 1723 - 1787
T:Adap.: A. Adanero
C:Karl Friedrich Abel 1723 - 1787
%%score 1 ( 2 3 )
L:1/8
M:3/4
K:F
V:1 bass nm="Violonchelo 1" snm="Vc. 1"
V:2 bass nm="Violonchelo 2" snm="Vc. 2"
V:3 bass 
V:1
 A,4 G,2 | F,2 (G,2 A,2) | B,4 A,2 | G,2 (F,E,D,C,) | A,4 G,2 | F,2 (G,2 A,2) | (B,G,) (F,2 E,2) | %7
 F,6 | A,4 G,2 | F,2 (G,2 A,2) | B,4 A,2 | G,2 (F,E,D,C,) | A,4 G,2 | F,2 (G,2 A,2) | %14
 (B,G,) (F,2 E,2) | F,6 |: A,4 =B,2 | C2 (D2 E2) | D2 (FD) (EC) | (ED) (C=B,) (A,G,) | E4 D2 | %21
 C2 (D2 E2) | (F,/A,/D/F/) (E2 D2) | C6 | (F4 E2) | D4 C2 | B,4 A,2 | G,2 (A,B,CB,) | A,4 G,2 | %29
 F,2 (G,2 A,2) | (B,G,) (F,2 E,2) | F,6 :| %32
V:2
 z6 | z6 | z6 | z6 | z6 | z6 | z6 | z6 | x6 | x6 | x6 | x6 | x6 | x6 | x6 | x6 |: x6 | x6 | x6 | %19
 x6 | x6 | x6 | x6 | x6 | (F4 E2) | D4 C2 | B,4 A,2 | G,2 (A,B,CB,) | A,4 G,2 | F,2 (G,2 A,2) | %30
 (B,G,) (F,2 E,2) | F,6 :| %32
V:3
 x6 | x6 | x6 | x6 | x6 | x6 | x6 | x6 | F,4 C,2 | D,2 z2 z2 | (D,2 E,2) F,2 | C,2 z2 z2 | %12
 F,4 C,2 | D,2 z2 z2 | [B,,D,]2 C,4 | [F,,C,]6 |: F,4 D,2 | [E,G,]2 z2 z2 | G,2 G,2 G,2 | %19
 G,2 z2 z2 | C4 G,2 | A,2 z2 z2 | F,2 G,4 | [C,E,G,]6 | A,6 | B,4 A,2 | (D,2 E,2) F,2 | C,2 z2 z2 | %28
 F,4 C,2 | D,2 z2 z2 | [B,,D,]2 C,4 | [F,,C,]6 :| %32

